app/assets/images/heroicons/outline/arrow-path.svg

<svg width="24" height="24" viewBox="0 0 24 24" fill="none" xmlns="http://www.w3.org/2000/svg">
<path d="M16.0228 9.34841H21.0154V9.34663M2.98413 19.6444V14.6517M2.98413 14.6517L7.97677 14.6517M2.98413 14.6517L6.16502 17.8347C7.15555 18.8271 8.41261 19.58 9.86436 19.969C14.2654 21.1483 18.7892 18.5364 19.9685 14.1353M4.03073 9.86484C5.21 5.46374 9.73377 2.85194 14.1349 4.03121C15.5866 4.4202 16.8437 5.17312 17.8342 6.1655L21.0154 9.34663M21.0154 4.3558V9.34663" stroke="#0F172A" stroke-width="1.5" stroke-linecap="round" stroke-linejoin="round"/>
</svg>

<svg xmlns="http://www.w3.org/2000/svg" fill="none" viewBox="0 0 24 24" stroke-width="1.5" stroke="currentColor" aria-hidden="true" data-slot="icon">
  <path stroke-linecap="round" stroke-linejoin="round" d="M16.023 9.348h4.992v-.001M2.985 19.644v-4.992m0 0h4.992m-4.993 0 3.181 3.183a8.25 8.25 0 0 0 13.803-3.7M4.031 9.865a8.25 8.25 0 0 1 13.803-3.7l3.181 3.182m0-4.991v4.99"/>
</svg>
